packages/kaspersky-hexa-ui-icons/src/iconsSVGs/16/ConnectionEthernet.svg

<svg width="16" height="16" viewBox="0 0 16 16" fill="none" xmlns="http://www.w3.org/2000/svg">
<path fill-rule="evenodd" clip-rule="evenodd" d="M4.31061 1.35254C2.67529 1.35254 1.34961 2.67822 1.34961 4.31354V9.42172C1.34961 10.8207 2.31968 11.9929 3.62396 12.3027V12.4566C3.62396 13.6665 4.60475 14.6473 5.81462 14.6473H10.1846C11.3945 14.6473 12.3753 13.6665 12.3753 12.4566V12.3027C13.6795 11.9929 14.6496 10.8207 14.6496 9.42172V4.31354C14.6496 2.67822 13.3239 1.35254 11.6886 1.35254H4.31061ZM2.64961 4.31354C2.64961 3.39619 3.39326 2.65254 4.31061 2.65254H4.35864L4.35864 4.98972C4.35864 5.34871 4.64966 5.63972 5.00864 5.63972C5.36763 5.63972 5.65864 5.34871 5.65864 4.98972V2.65254H7.34961L7.34961 4.98972C7.34961 5.34871 7.64062 5.63972 7.99961 5.63972C8.35859 5.63972 8.64961 5.34871 8.64961 4.98972V2.65254H10.3406V4.98972C10.3406 5.34871 10.6316 5.63972 10.9906 5.63972C11.3496 5.63972 11.6406 5.34871 11.6406 4.98972L11.6406 2.65254H11.6886C12.606 2.65254 13.3496 3.39619 13.3496 4.31354V9.42172C13.3496 10.3302 12.6201 11.0684 11.7152 11.0825L11.0753 11.0925V12.4566C11.0753 12.9485 10.6765 13.3473 10.1846 13.3473H5.81462C5.32272 13.3473 4.92396 12.9485 4.92396 12.4566V11.0925L4.28406 11.0825C3.37908 11.0684 2.64961 10.3302 2.64961 9.42172V4.31354Z" fill="black"/>
</svg>

<svg xmlns="http://www.w3.org/2000/svg" width="16" height="16" fill="none" viewBox="0 0 16 16"><path fill="#000" fill-rule="evenodd" d="M4.3106 1.3525c-1.6353 0-2.961 1.3257-2.961 2.961v5.1082c0 1.399.97 2.5712 2.2744 2.881v.1539c0 1.2099.9808 2.1907 2.1906 2.1907h4.37c1.2099 0 2.1907-.9808 2.1907-2.1907v-.1539c1.3042-.3098 2.2743-1.482 2.2743-2.881V4.3135c0-1.6353-1.3257-2.961-2.961-2.961zm-1.661 2.961c0-.9173.7437-1.661 1.661-1.661h.048v2.3372a.65.65 0 0 0 1.3 0V2.6525h1.691v2.3372a.65.65 0 1 0 1.3 0V2.6525h1.691v2.3372a.65.65 0 1 0 1.3 0V2.6525h.048c.9174 0 1.661.7437 1.661 1.661v5.1082c0 .9085-.7295 1.6467-1.6344 1.6608l-.6399.01v1.3641a.8907.8907 0 0 1-.8907.8907h-4.37a.8907.8907 0 0 1-.8906-.8907v-1.3641l-.64-.01c-.905-.0141-1.6344-.7523-1.6344-1.6608z"/></svg>
